Sources/FrostedUI/Resources/Icons.xcassets/message16.imageset/message-16.svg

<svg width="16" height="16" viewBox="0 0 16 16" fill="none" xmlns="http://www.w3.org/2000/svg" data-fui-icon="true">
  <path
    d="M12.833 1.75C13.9835 1.75 14.9158 2.68257 14.916 3.83301V10.833C14.916 11.9836 13.9836 12.917 12.833 12.917H10.2803L8.9043 14.0566C8.37776 14.4924 7.61484 14.4901 7.09082 14.0508L5.7373 12.917H3.16602C2.01575 12.9166 1.08301 11.9834 1.08301 10.833V3.83301C1.08318 2.68279 2.01585 1.75037 3.16602 1.75H12.833ZM3.16602 3.25C2.84428 3.25037 2.58318 3.51122 2.58301 3.83301V10.833C2.58301 11.155 2.84416 11.4166 3.16602 11.417H5.76758C6.05869 11.417 6.34205 11.5063 6.5791 11.6719L6.67773 11.748L8.00098 12.8564L9.34668 11.7422L9.44434 11.668C9.68023 11.5048 9.96149 11.4171 10.25 11.417H12.833C13.1552 11.417 13.416 11.1552 13.416 10.833V3.83301C13.4158 3.51098 13.1551 3.25 12.833 3.25H3.16602ZM5 6.47949C5.52926 6.47951 5.958 6.9083 5.95801 7.4375C5.95801 7.96671 5.52927 8.39549 5 8.39551C4.47071 8.39551 4.04199 7.96673 4.04199 7.4375C4.042 6.90828 4.47072 6.47949 5 6.47949ZM8 6.47949C8.52921 6.47952 8.958 6.90828 8.95801 7.4375C8.95801 7.96673 8.52922 8.39548 8 8.39551C7.47076 8.39551 7.04199 7.96674 7.04199 7.4375C7.042 6.90827 7.47077 6.47949 8 6.47949ZM11 6.47949C11.5292 6.47952 11.958 6.90828 11.958 7.4375C11.958 7.96673 11.5292 8.39548 11 8.39551C10.4708 8.39551 10.042 7.96674 10.042 7.4375C10.042 6.90827 10.4708 6.47949 11 6.47949Z"
    fill="currentColor"
  />
</svg>

<svg xmlns="http://www.w3.org/2000/svg" width="16" height="16" fill="none" data-fui-icon="true" viewBox="0 0 16 16"><path fill="currentColor" d="M12.833 1.75c1.15 0 2.083.933 2.083 2.083v7c0 1.15-.932 2.084-2.083 2.084H10.28l-1.376 1.14a1.42 1.42 0 0 1-1.813-.006l-1.354-1.134H3.166a2.084 2.084 0 0 1-2.083-2.084v-7c0-1.15.933-2.083 2.083-2.083zm-9.667 1.5a.584.584 0 0 0-.583.583v7c0 .322.261.584.583.584h2.602c.29 0 .574.09.811.255l.099.076L8 12.856l1.346-1.114.097-.074c.236-.163.517-.25.806-.251h2.583a.584.584 0 0 0 .583-.584v-7a.583.583 0 0 0-.583-.583zM5 6.48a.958.958 0 1 1 0 1.915.958.958 0 0 1 0-1.916m3 0a.958.958 0 1 1 0 1.915.958.958 0 0 1 0-1.916m3 0a.958.958 0 1 1 0 1.915.958.958 0 0 1 0-1.916"/></svg>
